X:1
T:[ID 2-9]
T:[ID 2-9]
T:Bezeichnung standardisiert: Menuet [mit Trio] Menuet Con Trio 17.
T:Urheber unbekannt Erstbeleg: 1767 (Datum in der schriftlichen Quelle) Datum in der hier transkribierten schriftlichen Quelle: 1775
C:Urheber unbekannt
C:Erstbeleg: 1767 (Datum in der schriftlichen Quelle)
C:Datum in der hier transkribierten schriftlichen Quelle: 1775
L:1/8
M:3/4
K:D
V:1 treble 
V:1
 (3fga | f2 f2 fd | F4 (3CDE | F2 F2 FE | F4 DE | D2 DFEG | F2 FE F2 | GfedcB | c4 :: (3cde | %10
 c2 c2 cA | c4 d2 | edecdB | A2 DE C2 |"^O)" G2 Gedc | FAGE F2 |"^O)" G2 Gedc | FAGE F2 | %18
 (3GFE D2 E2 | F4 :|[K:Dmin][M:3/4]"^Trio" !fermata!D2 F2 A2 | d3 ^cde | f2 g2 B2 | ABAGFE | %24
 F2 F2 A2 | de f2 A2 | GA F2 G2 | A6 :: f4 gf | e2 ^c2 d2 | e2 egfe | d2 F2 A2 | d2 ^c2 F2 | %33
 EFGE F2 | (3G^FE D2 E2 | ^F6 :| %36

